brandFactory_export/2.Regular/TK _2Regular.svg

<?xml version="1.0" encoding="UTF-8"?>
<svg width="24px" height="24px" viewBox="0 0 24 24" version="1.1" xmlns="http://www.w3.org/2000/svg" xmlns:xlink="http://www.w3.org/1999/xlink">
    <title>2.Regular/TK _2Regular</title>
    <g id="Symbols" stroke="none" stroke-width="1" fill="none" fill-rule="evenodd">
        <g id="2.Regular/TK-_2Regular" fill="#5CB615" fill-rule="nonzero">
            <path d="M11.8084034,1.4487395 C4.93445378,1.4487395 1.4487395,4.93781513 1.4487395,11.8151261 C1.4487395,18.6890756 4.93445378,22.1747899 11.8084034,22.1747899 C18.6857143,22.1747899 22.1747899,18.6890756 22.1747899,11.8151261 C22.1747899,4.93781513 18.6857143,1.4487395 11.8084034,1.4487395 Z M11.8084034,23.6235294 C4.08403361,23.6235294 0,19.5394958 0,11.8151261 C0,4.08403361 4.08403361,0 11.8084034,0 C19.5394958,0 23.6235294,4.08403361 23.6235294,11.8151261 C23.6235294,19.5394958 19.5394958,23.6235294 11.8084034,23.6235294 Z M11.4386555,6.09411765 C11.5831933,6.09411765 11.7243697,6.16134454 11.8151261,6.27563025 C11.9058824,6.38991597 11.9394958,6.54117647 11.9092437,6.68235294 L11.8184874,7.09579832 C11.7680672,7.31764706 11.5731092,7.47226891 11.3478992,7.47226891 L8.49411765,7.47226891 L8.49411765,17.0487395 C8.49411765,17.3142857 8.2789916,17.5327731 8.01008403,17.5327731 L7.55294118,17.5327731 C7.28403361,17.5327731 7.06890756,17.3176471 7.06890756,17.0487395 L7.06890756,7.47226891 L4.1512605,7.47226891 C3.88571429,7.47226891 3.66722689,7.25714286 3.66722689,6.98823529 L3.66722689,6.57478992 C3.66722689,6.3092437 3.88235294,6.0907563 4.1512605,6.0907563 L11.4386555,6.0907563 L11.4386555,6.09411765 Z M19.8857143,16.7966387 C19.9764706,16.9445378 19.9798319,17.1327731 19.892437,17.2840336 C19.805042,17.4352941 19.6470588,17.5294118 19.4722689,17.5294118 L18.9512605,17.5294118 C18.7798319,17.5294118 18.6252101,17.4386555 18.5378151,17.2941176 L15.4352941,12.1042017 L14.1983193,13.6470588 L14.1983193,17.0453782 C14.1983193,17.3109244 13.9831933,17.5294118 13.7142857,17.5294118 L13.2571429,17.5294118 C12.9882353,17.5294118 12.7731092,17.3142857 12.7731092,17.0453782 L12.7731092,6.57478992 C12.7731092,6.3092437 12.9882353,6.0907563 13.2571429,6.0907563 L13.7142857,6.0907563 C13.9831933,6.0907563 14.1983193,6.30588235 14.1983193,6.57478992 L14.1983193,11.4521008 L18.312605,6.27226891 C18.4033613,6.15798319 18.5445378,6.0907563 18.692437,6.0907563 L19.2268908,6.0907563 C19.4117647,6.0907563 19.5798319,6.19495798 19.6638655,6.36302521 C19.7445378,6.53109244 19.7210084,6.72941176 19.6067227,6.87394958 L16.3697479,10.9579832 L19.8857143,16.7966387 Z" id="TK-_2Regular"></path>
        </g>
    </g>
</svg>

<svg width="24" height="24" viewBox="0 0 24 24" xmlns="http://www.w3.org/2000/svg"><path d="M11.808 1.449c-6.874 0-10.36 3.489-10.36 10.366 0 6.874 3.486 10.36 10.36 10.36 6.878 0 10.367-3.486 10.367-10.36 0-6.877-3.49-10.366-10.367-10.366zm0 22.175C4.084 23.624 0 19.539 0 11.815 0 4.084 4.084 0 11.808 0c7.731 0 11.816 4.084 11.816 11.815 0 7.724-4.085 11.809-11.816 11.809zm-.37-17.53a.485.485 0 01.471.588l-.09.414a.482.482 0 01-.471.376H8.494v9.577a.484.484 0 01-.484.484h-.457a.482.482 0 01-.484-.484V7.472H4.15a.484.484 0 01-.484-.484v-.413c0-.266.215-.484.484-.484h7.288v.003zm8.448 10.703a.485.485 0 01-.413.733h-.522a.483.483 0 01-.413-.236l-3.103-5.19-1.237 1.543v3.398a.484.484 0 01-.484.484h-.457a.482.482 0 01-.484-.484V6.575c0-.266.215-.484.484-.484h.457c.27 0 .484.215.484.484v4.877l4.115-5.18a.486.486 0 01.38-.181h.534c.185 0 .353.104.437.272a.485.485 0 01-.057.51l-3.237 4.085 3.516 5.839z" fill="#5CB615" fill-rule="nonzero"/></svg>
